src/actions/16/resource-group-new.svg

<svg viewBox="0 0 16 16" xmlns="http://www.w3.org/2000/svg">
 <defs>
  <style type="text/css">.ColorScheme-Text {
        color:#2e3440;
      }</style>
 </defs>
 <path class="ColorScheme-Text" d="m11.5 2a2.5 2.5 0 0 0-2.5 2.5 2.5 2.5 0 0 0 2.5 2.5 2.5 2.5 0 0 0 2.5-2.5 2.5 2.5 0 0 0-2.5-2.5zm-6 2a2.5 2.5 0 0 0-2.5 2.5 2.5 2.5 0 0 0 2.5 2.5 2.5 2.5 0 0 0 2.5-2.5 2.5 2.5 0 0 0-2.5-2.5zm5.5 4.0723a3.5 4 0 0 0-2.5078 2.2012 4.5 5 0 0 1 0.59961 0.72656h0.20117a2.5 3 0 0 1 1.707-1.8926v-1.0352zm1 0.92773v2h-2v1h2v2h1v-2h2v-1h-2v-2h-1zm-6.5 1a3.5 4 0 0 0-3.5 4h1 5 1a3.5 4 0 0 0-3.5-4zm0 1a2.5 3 0 0 1 2.3535 2h-4.707a2.5 3 0 0 1 2.3535-2z" fill="currentColor"/>
</svg>

<svg xmlns="http://www.w3.org/2000/svg" viewBox="0 0 16 16">
  <defs id="defs3051">
    <style type="text/css" id="current-color-scheme">
      .ColorScheme-Text {
        color:#2e3440;
      }
      </style>
  </defs>
 <path style="fill:currentColor;fill-opacity:1;stroke:none" 
     d="M 11.5 2 A 2.5 2.5 0 0 0 9 4.5 A 2.5 2.5 0 0 0 11.5 7 A 2.5 2.5 0 0 0 14 4.5 A 2.5 2.5 0 0 0 11.5 2 z M 5.5 4 A 2.5 2.5 0 0 0 3 6.5 A 2.5 2.5 0 0 0 5.5 9 A 2.5 2.5 0 0 0 8 6.5 A 2.5 2.5 0 0 0 5.5 4 z M 11 8.0722656 A 3.4999979 4 0 0 0 8.4921875 10.273438 A 4.5 5 0 0 1 9.0917969 11 L 9.2929688 11 A 2.5 3 0 0 1 11 9.1074219 L 11 8.0722656 z M 12 9 L 12 11 L 10 11 L 10 12 L 12 12 L 12 14 L 13 14 L 13 12 L 15 12 L 15 11 L 13 11 L 13 9 L 12 9 z M 5.5 10 A 3.4999979 4 0 0 0 2 14 L 3 14 L 8 14 L 9 14 A 3.4999979 4 0 0 0 5.5 10 z M 5.5 11 A 2.5 3 0 0 1 7.8535156 13 L 3.1464844 13 A 2.5 3 0 0 1 5.5 11 z "
     class="ColorScheme-Text"
     />
</svg>
